X:1
T:Ego sum panis vivus
T:Giovanni Maria Casini
T:ed. Jeffrey Quick
T:Ego sum panis vivus
T:Motetto per il SS. Sacramento
T:©2018 Jeffrey Quick
T:©2018 Jeffrey Quick
T:©2018 Jeffrey Quick
T:©2018 Jeffrey Quick
C:Giovanni Maria Casini
Z:©2018 Jeffrey Quick
%%score [ 1 2 3 4 ]
L:1/8
Q:1/4=180
M:2/2
K:C
V:1 treble-8 nm="Alto" snm="A"
V:2 treble-8 nm="Tenor 1" snm="T 1"
V:3 treble-8 nm="Tenor 2" snm="T 2"
V:4 bass nm="Bass" snm="B"
V:1
 g8 e4 g4 | f4 e4 d8 | c4 e2 f2 g4 f2 d2 | e2 ^f2 g8 f4 | g16 | z8 f8 | e4 g4 f4 e4- | e4 d8 c4 | %8
w: E- go sum|pa- nis vi-|vus qui de cae- lo de-|scen- * * *|di|E-|go sum pa- nis|_ vi- *|
 B8 A4 e2 e2 | f4 e2 d2 e8 | d4 f2 g2 a4 g2 f2 | e2 dc f8 e4 | f4 f4 f4 e2 f2 | d2 e2 f2 d2 e4 e4 | %14
w: * vus qui de|cae- lo de- scen-|di qui de cae- lo de-|scen- * * * *|di si quis man- du-|ca- * * ve- rit si|
 e4 d2 e2 c2 d2 e2 c2 | A4 e4 f4 e2 f2 | d4 d4 e4 g4- | g4 ^g4 a4 =g4 | ^f8 e8 | z8 d6 e2 | %20
w: quis man- du- ca- * * ve-|rit si quis man- du-|ca- ve- rit ex|_ hoc Pa- *|* ne|vi- vet|
 f2 g2 a6 g2 f2 e2 | f4 e4 d4 f4 | f4 e2 f2 g2 fe f4- | f4 e4 f8 | z16 | z4 e6 d2 c2 B2 | %26
w: in ae- ter- * * *|* * num si|quis man- du- ca- * * *|* ve- rit||vi- vet in ae-|
 A2 B2 c4 d8 | e4 e2 d2 c4 d4 | d4 g2 g2 f4 e4 | z4 g2 g2 g4 g4 | z16 | g6 f2 e2 d2 c2 d2 | %32
w: ter- * * *|num in ae- ter- *|num vi- vet vi- vet|vi- vet vi- vet||vi- vet in ae- ter- *|
 e2 f2 g4- g2 fe f4- | f2 ed e2 dc d8 | e16 |] %35
w: ||num.|
V:2
 z16 | z16 | c8 B4 d4 | c4 B4 A8 | G4 B2 B2 c4 B2 G2 | A2 B2 c8 B4 | c16 | z16 | %8
w: ||E- go sum|pa- nis vi-|vus qui de cae- lo de-|scen- * * *|di||
 z4 B2 B2 c2 d2 c2 B2 | A2 B^c d8 c4 | d8 z8 | z4 c4 c4 _B2 c2 | A2 _B2 c2 A2 =B2 G2 c2 d2 | %13
w: qui de cae- * lo de-|scen- * * * *|di|si quis man- du-|ca- * * * * * * *|
 B2 c2 d2 B2 c8 | z8 z4 c4 | c4 B2 c2 A2 B2 c4- | c4 B4 c4 e4- | e4 d4 c2 d2 e4- | e4 ^d4 e4 z4 | %19
w: * * * ve- rit|si|quis man- du- ca- * *|* ve- rit ex|_ hoc Pa- * *|* * ne|
 z4 G6 A2 B2 c2 | d4 d4 z4 A4 | A4 G2 A2 F2 G2 A2 _B2 | A4 A4 D8 | z8 z4 c4- | c4 ^c4 d4 =c4 | %25
w: vi- vet in ae-|ter- num si|quis man- du- ca- * * *|* ve- rit|ex|_ hoc Pa- *|
 B8 c4 c4- | c2 B2 A2 G2 F2 E2 F2 G2 | E2 ^F2 G8 F4 | G4 d2 c2 c4 c4 | z4 e2 d2 e4 d4 | %30
w: * ne vi-|* vet in ae- ter- * * *||num vi- vet vi- vet|vi- vet vi- vet|
 z4 d6 e2 c2 d2 | e2 dc d4 c4 e4- | e2 d2 c2 e2 d2 c2 d2 c2 | B2 G2 c8 B4 | c16 |] %35
w: vi- vet in ae-|ter- * * * num vi-|* vet in ae- ter- * * *||num.|
V:3
 z16 | z16 | z16 | z16 | z16 | z16 | c8 A4 c4 | B4 A4 ^G2 E2 A4- | A4 ^G4 A8 | z8 A6 A2 | %10
w: ||||||E- go sum|pa- nis vi- * *|* * vus|qui de|
 _B8 A2 F2 B4- | B2 A2 A2 GF G8 | F8 z8 | z8 z4 c4 | c4 B2 c2 A2 B2 c2 A2 | e8 z8 | z8 z4 c4- | %17
w: cae- lo de- scen-||di|si|quis man- du- ca- * * ve-|rit|ex|
 c4 B4 A2 B2 c2 G2 | A4 B4 E8 | G6 A2 B2 c2 d4- | d2 cB A2 B2 ^c4 d4- | d4 ^c4 d8 | %22
w: _ hoc Pa- * * *|* * ne|vi- vet in ae- ter-||* * num|
 z4 A4 _B4 A2 B2 | G4 G4 A4 A4- | A4 G4 F2 G2 A4- | A4 ^G4 A8 | z4 A6 G2 A2 B2 | c2 d2 c2 B2 A8 | %28
w: si quis man- du-|ca- ve- rit ex|_ hoc Pa- * *|* * ne|vi- vet in ae-|ter- * * * *|
 G4 B2 c2 A4 G4 | z4 c2 d2 c4 B4 | z4 B6 c2 A2 B2 | c2 BA B4 G4 c4- | c2 BA G2 c2 A8 | %33
w: num vi- vet vi- vet|vi- vet vi- vet|vi- vet in ae-|ter- * * * num vi-|* vet _ in ae- ter-|
 G4 G2 G2 G8 | G16 |] %35
w: num in ae- ter-|num.|
V:4
 z16 | z16 | z16 | z16 | G,8 E,4 G,4 | F,4 E,4 D,8 | C,4 E,2 E,2 F,4 C,2 C,2 | %7
w: ||||E- go sum|pa- nis vi-|vus qui de cae- lo de-|
 D,2 E,2 F,2 D,2 E,4 F,2 E,2 | D,4 E,4 A,,8 | z16 | D,6 E,2 F,4 D,2 D,2 | C,16 | F,8 z8 | z16 | %14
w: scen- * * * * * *|* * di||qui de cae- lo de-|scen-|di||
 z8 z4 A,4 | A,4 G,2 A,2 F,2 G,2 A,2 F,2 | G,4 G,4 C,8 | z16 | z8 z4 C,4- | C,2 D,2 E,2 F,2 G,8 | %20
w: si|quis man- du- ca- * * *|* ve- rit||vi-|* vet in ae- ter-|
 D,2 E,2 F,2 G,2 A,4 D,4 | A,,8 D,4 D,4 | D,4 C,2 D,2 _B,,2 C,2 D,2 B,,2 | C,4 C,4 F,,4 F,4- | %24
w: |* num si|quis man- du- ca- * * *|* ve- rit ex|
 F,4 E,4 D,2 E,2 F,2 C,2 | D,4 E,4 A,,4 A,4- | A,2 G,2 F,2 E,2 D,8 | C,8 z8 | z4 G,2 E,2 F,4 C,4 | %29
w: _ hoc Pa- * * *|* * ne vi-|* vet in ae- ter-|num|vi- vet vi- vet|
 z4 C2 B,2 C4 G,4 | z4 G,6 E,2 F,2 D,2 | C,4 G,,4 C,4 C,4- | C,2 D,2 E,2 C,2 F,4 D,4 | G,8 G,,8 | %34
w: vi- vet vi- vet|vi- vet in ae-|ter- * num vi-|* vet in ae- ter- *||
 C,16 |] %35
w: num.|

